X: 5
T: Bantry Bay
R: hornpipe
M: 4/4
L: 1/8
K: Gmaj
GA|:BGAG EGDE|G3F GBAG|EAAB cBAG| EAAG A2AB|
ceec BddB|ABAG EGDG| BGAG EGDE|1 G3F G2GA:|2 G3F GABc||
|:dBGB dBGB|e3d e2 de|gfed BGBd|g2(3fga g2ef|
g3f efed|BGAG EGDG|BGAG EGDE|1 G3F GABc:|2 G3F G4||


Tune 1061	Setting 6145

